src/icons/panda.svg

<?xml version="1.0" encoding="UTF-8"?>
<svg version="1.1" viewBox="0 0 24 24" xml:space="preserve" xmlns="http://www.w3.org/2000/svg"><path d="m4.524 20.862c-0.25754-0.31725-0.95828-2.6825-1.3187-4.451-1.238-6.0749 0.09986-10.397 3.824-12.354 1.5952-0.83826 2.9178-1.1137 5.3704-1.1184 3.2114-0.00612 5.1013 0.61694 6.8074 2.2442 2.5192 2.4029 2.7346 6.7322 0.45891 9.2222-1.2673 1.3866-4.5976 2.8203-6.5513 2.8203h-0.59265l-0.40769-1.2388c-0.22423-0.68136-0.45645-1.5027-0.51605-1.8251l-0.10836-0.58628 0.65602 0.088c0.77684 0.1042 1.8891-0.27087 2.3655-0.79768 0.99746-1.1029 0.82368-3.5953-0.30212-4.333-1.0637-0.69694-3.1245-0.65314-4.1661 0.088531-1.8887 1.3449-1.3824 6.2478 1.1713 11.343 0.24808 0.49494 0.40644 0.94452 0.3519 0.99906-0.05453 0.05453-1.6249 0.09916-3.4897 0.09916-2.5194 0-3.4322-0.05133-3.5528-0.19981z" fill="#ffd740" stroke-width=".15985"/></svg>

<svg viewBox="0 0 24 24" xmlns="http://www.w3.org/2000/svg">
  <path
    d="M4.524 20.862C4.26646 20.5447 3.56572 18.1795 3.2053 16.411C1.9673 10.3361 3.30516 6.014 7.0293 4.057C8.6245 3.21874 9.9471 2.9433 12.3997 2.9386C15.6111 2.93248 17.501 3.55554 19.2071 5.1828C21.7263 7.5857 21.9417 11.915 19.666 14.405C18.3987 15.7916 15.0684 17.2253 13.1147 17.2253H12.5221L12.1144 15.9865C11.8901 15.3051 11.6579 14.4838 11.5983 14.1614L11.49 13.5751L12.146 13.6631C12.9228 13.7673 14.0351 13.3922 14.5115 12.8654C15.5089 11.7625 15.3352 9.27014 14.2094 8.53244C13.1457 7.8355 11.0849 7.8793 10.0433 8.62097C8.15456 9.96587 8.66086 14.8688 11.2146 19.964C11.4626 20.4589 11.621 20.9085 11.5665 20.963C11.5119 21.0176 9.94156 21.0622 8.07676 21.0622C5.55736 21.0622 4.6446 21.0105 4.524 20.862Z"
    fill="#FFD740"
  />
</svg>
